X: 19281
T: Ivy Leaf, The
R: reel
M: 4/4
K: Amixolydian
|:"A"~A3e cAec|"A"Aece "G"(3Bcd BG|"A"~A3 e cA ec|"Em"BE ~E2 "G"GABG|
"A"~A3e ce ~e2|"A" ce ~e2 "G"(3Bcd BG|"A"~A3e cA ed|"Em" BE ~E2 GA (3Bcd:|
|:"A"~e3f edcd|"A"edge "G"dG (3Bcd|"Am" ea{b}ag edcA|"Em"BGEF "G"GA (3Bcd|
"A"~e3f edcd|"A"edge "G"dGBG|"Am" ~A3 B =cB cd|"Em"edfd "G"gedB:|

